X:15
T:In the Merry Month of May”In C”. WHG.015
R:jig
S:W.H.Giles MS,Bampton,Oxfordshire,1839p16
O:England
H:donated by Mrs W.R.Kettlewell to VWML,Apr 1927.
A:Bampton, Oxfordshire
N:”Da Capo” occupies most of stave 4. Repeats uncertain.
Z:PJHeadford – VMP 2009
M:6/8
L:1/8
Q:3/8=120
K:C
|:G|cdc d2e|f2e a2f|gag edc|B2c dBG|
cdc d2e|f2e a2g|gag edc|dcB c2:|
e|ded d2e|fgf e2g|c’2g c’2g|edc d2e|
ded d2e|fgf e2g|c’2g c’2g|+D.C.+gag fed|]

